modules/hawcons-stroke/icons/icon-43-sailing-boat.svg

<?xml version="1.0" encoding="UTF-8" standalone="no"?>
<svg width="32px" height="32px" viewBox="0 0 32 32" version="1.1" xmlns="http://www.w3.org/2000/svg" xmlns:xlink="http://www.w3.org/1999/xlink" xmlns:sketch="http://www.bohemiancoding.com/sketch/ns">
    <!-- Generator: Sketch 3.0.3 (7891) - http://www.bohemiancoding.com/sketch -->
    <title>icon 43 sailing boat</title>
    <desc>Created with Sketch.</desc>
    <defs></defs>
    <g id="Page-1" stroke="none" stroke-width="1" fill="none" fill-rule="evenodd" sketch:type="MSPage">
        <g id="icon-43-sailing-boat" sketch:type="MSArtboardGroup" fill="#929292">
            <path d="M7.16995452,23 C7.58017756,24.1651924 8.68820747,25 10.0001221,25 L22.9998779,25 C24.3056524,25 25.4165876,24.1637343 25.8288165,23 L7.16995452,23 L7.16995452,23 L7.16995452,23 Z M17,22 L26.9047619,22 L27,22 C27,24.2046438 25.2094214,26 23.0006308,26 L9.99936922,26 C7.79044819,26 6,24.209139 6,22 L6.0952381,22 L16,22 L16,7 L17,7 L17,22 L17,22 Z M27,21 L18,21 L18,12 L27,21 L27,21 Z M24.5,20 L19,20 L19,14.5 L24.5,20 L24.5,20 Z M9,12.5 C6,17.5 6,21 6,21 L15,21 C15,21 14,19.5 14,15 C14,10.5 15,7 15,7 C15,7 12,7.5 9,12.5 L9,12.5 Z M9.39678963,13.809021 C7.1000061,18.1685181 7.1000061,20.0000004 7.1000061,20.0000004 L13.6000061,20 C13.6000061,20 12.9999999,18.1912838 12.9999999,15.0000001 C12.9999999,11.8087164 13.600006,8.77172852 13.600006,8.77172852 C13.600006,8.77172852 11.3596479,10.0833435 9.39678963,13.809021 L9.39678963,13.809021 Z" id="sailing-boat" sketch:type="MSShapeGroup"></path>
        </g>
    </g>
</svg>

<svg width="32" height="32" xmlns="http://www.w3.org/2000/svg"><path d="M7.17 23c.41 1.165 1.518 2 2.83 2h13a3.004 3.004 0 0 0 2.829-2H7.17zM17 22h10c0 2.205-1.79 4-4 4H10a4 4 0 0 1-4-4h10V7h1v15zm10-1h-9v-9l9 9zm-2.5-1H19v-5.5l5.5 5.5zM9 12.5c-3 5-3 8.5-3 8.5h9s-1-1.5-1-6 1-8 1-8-3 .5-6 5.5zm.397 1.309C7.1 18.169 7.1 20 7.1 20h6.5s-.6-1.809-.6-5 .6-6.228.6-6.228-2.24 1.311-4.203 5.037z" fill="#929292" fill-rule="evenodd"/></svg>
